X:2512
T:The Braes of Mellinish
P:Major Graham
C:Neil Gow
R:Strathspey (8x32)
B:RSCDS 25-12
Z:Anselm Lingnau <anselm@strathspey.org>
M:C
L:1/8
K:G
D>B,|"D"A,>B, "G"D<D "D"D2 "G"d>B|"D"A>F "E"E<D "A7"E2 "G"D>B,|\
     "D"A,>B, "G"D<D "D"D2 "G"d>B|"D"A>F "A7"E<F "D"D2 D>B,|
     "D"A,>B, "G"D<D "D"D2 "G"d>B|"D"A>F "E"E<D "A7"E2 "G"D>B,|\
     "D"A,>B, "G"D<D "D"D2 "G"d>B|"D"A>F "A7"E<F "D"D2||
AB/c/|"D"de dc "G"BA Bd|"D"A>F "E7"E<D "A7"E2 AB/c/|\
      "D"d>e d>c "G"B>A B<d|"A7"A<F E>F "D"D2 AB/c/|
      "D"d>e d>c "G"B>A B<d|"D"A<F "E"E>F "A7"E2 "G"D>B,|\
      "D"A,>B, "G"D<D "D"D2 "G"d>B|"D"A>F "A7"E<F "D"D2|]
